packages/astro-components-stencil/src/icons/cancel-presentation.svg

<svg xmlns="http://www.w3.org/2000/svg" viewBox="0 0 24 24"><g xmlns="http://www.w3.org/2000/svg" id="cancel-presentation" fill-rule="nonzero">
            <path d="M21 3H3c-1.1 0-2 .9-2 2v14c0 1.1.9 2 2 2h18c1.1 0 2-.9 2-2V5c0-1.1-.9-2-2-2zm0 15c0 .55-.45 1-1 1H4c-.55 0-1-.45-1-1V6c0-.55.45-1 1-1h16c.55 0 1 .45 1 1v12zm-5.71-9.3a.996.996 0 00-1.41 0L12 10.59 10.11 8.7a.996.996 0 10-1.41 1.41L10.59 12 8.7 13.89a.996.996 0 101.41 1.41L12 13.41l1.89 1.89a.996.996 0 101.41-1.41L13.41 12l1.89-1.89c.38-.38.38-1.02-.01-1.41z"/>
        </g></svg>

<svg width="24" height="24" viewBox="0 0 24 24" fill="none" xmlns="http://www.w3.org/2000/svg">
<path fill-rule="evenodd" clip-rule="evenodd" d="M21 3H3C1.9 3 1 3.9 1 5V19C1 20.1 1.9 21 3 21H21C22.1 21 23 20.1 23 19V5C23 3.9 22.1 3 21 3ZM21 18C21 18.55 20.55 19 20 19H4C3.45 19 3 18.55 3 18V6C3 5.45 3.45 5 4 5H20C20.55 5 21 5.45 21 6V18ZM13.88 8.7C14.27 8.31 14.9 8.31 15.29 8.7C15.68 9.09 15.68 9.73 15.3 10.11L13.41 12L15.3 13.89C15.69 14.28 15.69 14.91 15.3 15.3C14.91 15.69 14.28 15.69 13.89 15.3L12 13.41L10.11 15.3C9.72 15.69 9.09 15.69 8.7 15.3C8.31 14.91 8.31 14.28 8.7 13.89L10.59 12L8.7 10.11C8.31 9.72 8.31 9.09 8.7 8.7C9.09 8.31 9.72 8.31 10.11 8.7L12 10.59L13.88 8.7Z" fill="black"/>
</svg>
